src/lib/packages/icons/src/assets/filled/badge-discount-alt.svg

<svg width="24" height="24" viewBox="0 0 24 24" fill="none" xmlns="http://www.w3.org/2000/svg">
<path fill-rule="evenodd" clip-rule="evenodd" d="M20.5589 10.936L19.243 9.61999C18.962 9.33899 18.8039 8.95698 18.8039 8.55898V6.70098C18.8039 5.86998 18.1299 5.196 17.2989 5.196H15.441C15.043 5.196 14.662 5.03798 14.38 4.75698L13.0639 3.441C12.4759 2.853 11.524 2.853 10.936 3.441L9.61996 4.75698C9.33895 5.03798 8.95692 5.196 8.55892 5.196H6.70101C5.87001 5.196 5.196 5.86998 5.196 6.70098V8.55898C5.196 8.95698 5.03792 9.33799 4.75692 9.61999L3.441 10.936C2.853 11.524 2.853 12.476 3.441 13.064L4.75692 14.38C5.03792 14.661 5.196 15.043 5.196 15.441V17.299C5.196 18.13 5.87001 18.804 6.70101 18.804H8.55892C8.95692 18.804 9.33795 18.962 9.61996 19.243L10.936 20.559C11.524 21.147 12.4759 21.147 13.0639 20.559L14.38 19.243C14.661 18.962 15.043 18.804 15.441 18.804H17.2989C18.1299 18.804 18.8039 18.13 18.8039 17.299V15.441C18.8039 15.043 18.962 14.662 19.243 14.38L20.5589 13.064C21.1469 12.476 21.1469 11.524 20.5589 10.936ZM8.51497 9.49999C8.51497 8.94799 8.95797 8.49999 9.50997 8.49999H9.51998C10.073 8.49999 10.52 8.94799 10.52 9.49999C10.52 10.052 10.073 10.5 9.51998 10.5C8.96798 10.5 8.51497 10.052 8.51497 9.49999ZM10.03 15.03C9.88399 15.176 9.69196 15.25 9.49996 15.25C9.30796 15.25 9.11593 15.177 8.96993 15.03C8.67693 14.737 8.67693 14.262 8.96993 13.969L13.9699 8.96898C14.2629 8.67598 14.738 8.67598 15.031 8.96898C15.324 9.26198 15.324 9.73699 15.031 10.03L10.03 15.03ZM14.52 15.5C13.968 15.5 13.515 15.052 13.515 14.5C13.515 13.948 13.958 13.5 14.51 13.5H14.52C15.073 13.5 15.52 13.948 15.52 14.5C15.52 15.052 15.072 15.5 14.52 15.5Z" fill="currentColor"/>
</svg>

<svg xmlns="http://www.w3.org/2000/svg" width="24" height="24" fill="none"><path fill="currentColor" fill-rule="evenodd" d="M20.559 10.936 19.243 9.62a1.501 1.501 0 0 1-.44-1.061V6.701c0-.831-.673-1.505-1.504-1.505H15.44c-.398 0-.779-.158-1.061-.439l-1.316-1.316a1.504 1.504 0 0 0-2.128 0L9.62 4.757a1.501 1.501 0 0 1-1.061.439H6.7c-.831 0-1.505.674-1.505 1.505v1.858a1.5 1.5 0 0 1-.44 1.061L3.44 10.936a1.504 1.504 0 0 0 0 2.128l1.316 1.316c.28.281.439.663.439 1.061v1.858c0 .831.674 1.505 1.505 1.505h1.858c.398 0 .779.158 1.061.439l1.316 1.316c.588.588 1.54.588 2.128 0l1.316-1.316a1.5 1.5 0 0 1 1.061-.439h1.858c.83 0 1.505-.674 1.505-1.505v-1.858c0-.398.158-.779.439-1.061l1.316-1.316a1.504 1.504 0 0 0 0-2.128ZM8.515 9.5c0-.552.443-1 .995-1h.01a1 1 0 1 1 0 2 1.005 1.005 0 0 1-1.005-1Zm1.515 5.53a.748.748 0 0 1-1.06 0 .75.75 0 0 1 0-1.061l5-5a.75.75 0 0 1 1.061 1.061l-5.001 5Zm4.49.47a1.005 1.005 0 0 1-1.005-1c0-.552.443-1 .995-1h.01a1 1 0 1 1 0 2Z" clip-rule="evenodd"/></svg>
